images/content/logoa.svg

<?xml version="1.0" encoding="UTF-8" standalone="no"?>
<svg width="32px" height="32px" viewBox="0 0 32 32" version="1.1" xmlns="http://www.w3.org/2000/svg" xmlns:xlink="http://www.w3.org/1999/xlink">
    <!-- Generator: sketchtool 39.1 (31720) - http://www.bohemiancoding.com/sketch -->
    <title>AFE35034-FA93-4657-AA70-0406EE26E78D</title>
    <desc>Created with sketchtool.</desc>
    <defs>
        <polygon id="path-1" points="15.9999 32 0 32 0 0 15.9999 0 31.9998 0 31.9998 32 15.9999 32"></polygon>
    </defs>
    <g id="Symbols" stroke="none" stroke-width="1" fill="none" fill-rule="evenodd">
        <g id="athlon-logo-/-mark">
            <g id="logo.a">
                <g id="Group-3">
                    <mask id="mask-2" fill="white">
                        <use xlink:href="#path-1"></use>
                    </mask>
                    <g id="Clip-2"></g>
                    <path d="M26.9338,0 L5.0658,0 C2.2678,0 -0.0002,2.202 -0.0002,4.918 L-0.0002,23.105 L-0.0002,27.083 L-0.0002,32 L5.0658,32 L12.9828,32 L26.9338,32 C29.7318,32 31.9998,29.798 31.9998,27.083 L31.9998,4.918 C31.9998,2.202 29.7318,0 26.9338,0" id="Fill-1" fill="#ED1F4E" mask="url(#mask-2)"></path>
                </g>
                <path d="M13.3328,19.5 L16.0918,11.559 L18.7598,19.5 L13.3328,19.5 Z M15.8588,5 C14.8658,5 14.0938,5.63 13.6148,6.88 C13.3768,7.503 6.3738,27 6.3738,27 L7.4358,27 L9.2328,27 C10.2258,27 10.9988,26.185 11.4768,24.936 L12.1368,22.953 L19.8938,22.953 L21.1818,27 L25.6268,27 L17.6558,5 L15.8588,5 Z" id="Fill-4" fill="#FFFFFF"></path>
            </g>
        </g>
    </g>
</svg>

<svg width="32" height="32" xmlns="http://www.w3.org/2000/svg" xmlns:xlink="http://www.w3.org/1999/xlink"><defs><path id="a" d="M16 32H0V0h32v32H16z"/></defs><g fill="none" fill-rule="evenodd"><mask id="b" fill="#fff"><use xlink:href="#a"/></mask><path d="M26.934 0H5.066C2.268 0 0 2.202 0 4.918V32h26.933c2.8 0 5.067-2.202 5.067-4.917V4.918C32 2.202 29.732 0 26.934 0" fill="#ED1F4E" mask="url(#b)"/><path d="M13.333 19.5l2.759-7.941L18.76 19.5h-5.427zM15.859 5c-.993 0-1.765.63-2.244 1.88C13.377 7.503 6.374 27 6.374 27h2.859c.993 0 1.766-.815 2.244-2.064l.66-1.983h7.757L21.182 27h4.445L17.656 5h-1.797z" fill="#FFF"/></g></svg>
